X: 20403
T: John Doherty's
R: reel
M: 4/4
K: Eminor
|:EAAB c2BA|GBdc BAGA|EAAB cdeg|gedg eAA2:|
|:eaag edBd|g2bg edBd|g2gf egge|dBgB BAA2:|

